X: 19923
T: Jig Of Port Fleadh, The
R: jig
M: 6/8
K: Gmajor
|:B2G AGE|DB,D G (3Bcd|g2d edB|edB AGA|
B2G AGE|D (3B,CD G (3Bcd|g2d edB|1 cAF G2A:|2 cAF GBd||
g2e fed|edB GBd|gag (3fga f|gfe def|
g2e fed|edB G (3Bcd|gdB ecA|1 DEF G2d:|2 DEF G2A||

